actions/symbolic/edit-select-symbolic.svg

<svg viewBox="0 0 16 16" xmlns="http://www.w3.org/2000/svg"><path d="m4 2a .8.75 0 0 0 -.8.75.8.75 0 0 0  .8.75.8.75 0 0 0  .8-.75.8.75 0 0 0 -.8-.75m.8 2.25.004688 9.75 3.1156248-3.524415 4.8796872-.225585z" fill="#bebebe"/></svg>

<?xml version="1.0" encoding="UTF-8" standalone="no"?>
<svg
   xmlns:dc="http://purl.org/dc/elements/1.1/"
   xmlns:cc="http://creativecommons.org/ns#"
   xmlns:rdf="http://www.w3.org/1999/02/22-rdf-syntax-ns#"
   xmlns:svg="http://www.w3.org/2000/svg"
   xmlns="http://www.w3.org/2000/svg"
   xmlns:sodipodi="http://sodipodi.sourceforge.net/DTD/sodipodi-0.dtd"
   xmlns:inkscape="http://www.inkscape.org/namespaces/inkscape"
   viewBox="0 0 16 16"
   id="svg3255"
   version="1.1"
   inkscape:version="0.91 r13725"
   sodipodi:docname="edit-select-symbolic.svg">
  <metadata
     id="metadata3263">
    <rdf:RDF>
      <cc:Work
         rdf:about="">
        <dc:format>image/svg+xml</dc:format>
        <dc:type
           rdf:resource="http://purl.org/dc/dcmitype/StillImage" />
      </cc:Work>
    </rdf:RDF>
  </metadata>
  <sodipodi:namedview
     pagecolor="#ffffff"
     bordercolor="#666666"
     borderopacity="1"
     objecttolerance="10"
     gridtolerance="10"
     guidetolerance="10"
     inkscape:pageopacity="0"
     inkscape:pageshadow="2"
     inkscape:window-width="640"
     inkscape:window-height="480"
     id="namedview3261"
     showgrid="false"
     inkscape:zoom="39.8125"
     inkscape:cx="3.0769231"
     inkscape:cy="8"
     inkscape:current-layer="svg3255" />
  <defs
     id="defs3051">
    <style
       type="text/css"
       id="current-color-scheme">
      .ColorScheme-Text {
        color:#bebebe;
      }
      </style>
  </defs>
  <path
     style="color:#bebebe;fill:currentColor;fill-opacity:1;stroke:none"
     class="ColorScheme-Text"
     d="M 4,2 A 0.8,0.75 0 0 0 3.2,2.75 0.8,0.75 0 0 0 4,3.5 0.8,0.75 0 0 0 4.8,2.75 0.8,0.75 0 0 0 4,2 M 4.8,4.25 4.804688,14 7.9203128,10.475585 12.8,10.25 l -8,-6"
     id="path3259"
     inkscape:connector-curvature="0" />
</svg>
